svg/fluentui-system-icons/ic_fluent_arrow_turn_down_left_20_regular.svg

<svg width="20" height="20" viewBox="0 0 20 20" fill="none" xmlns="http://www.w3.org/2000/svg">
<path d="M8.85355 16.8536C8.65829 17.0488 8.34171 17.0488 8.14645 16.8536L4.14645 12.8536C3.95118 12.6583 3.95118 12.3417 4.14645 12.1464L8.14645 8.14645C8.34171 7.95118 8.65829 7.95118 8.85355 8.14645C9.04882 8.34171 9.04882 8.65829 8.85355 8.85355L5.70711 12H12C13.1046 12 14 11.1046 14 10V3.5C14 3.22386 14.2239 3 14.5 3C14.7761 3 15 3.22386 15 3.5V10C15 11.6569 13.6569 13 12 13H5.70711L8.85355 16.1464C9.04882 16.3417 9.04882 16.6583 8.85355 16.8536Z" fill="#212121"/>
</svg>

<svg xmlns="http://www.w3.org/2000/svg" width="20" height="20"><path d="M8.854 16.854a.5.5 0 0 1-.708 0l-4-4a.5.5 0 0 1 0-.708l4-4a.5.5 0 1 1 .708.708L5.707 12H12a2 2 0 0 0 2-2V3.5a.5.5 0 0 1 1 0V10a3 3 0 0 1-3 3H5.707l3.147 3.146a.5.5 0 0 1 0 .708Z"/></svg>
